X:1
T:Title
%%score { ( 1 3 6 ) | ( 2 4 5 ) }
L:1/8
M:4/4
K:Eb
V:1 treble nm="Grand Piano"
V:3 treble 
V:6 treble 
V:2 bass 
V:4 bass 
V:5 bass 
V:1
 z4 z2[Q:1/4=100] C>E | z2 G4 z2 | G2 z2 z4 | F6 z2 | F2 z2 z4 |[M:3/4] z6 |[M:1/4] z2 | %7
[M:4/4] z2 G4 z2 | G2 z2 z4 | F6 z2 | F2 z2 z4 |[M:3/4] z6 |[M:1/4] z2 | %13
[M:4/4] B2 z2 G>G z z/ =E/ | F6 B>B | A>A G>G F>F E>D | E6 D>C | [D,=B,-]4 B,2- [B,-C]>[B,D] | %18
 E>F G>A A2 G>_G | G6[K:bass] z2 | E>[K:treble]E D2 D>D z z/ =B,/ |[M:3/4] C6 |] %22
V:2
 z4 z2 [F,A,]2 | C8 | z z/[K:treble] G/ G>G z z/ G/ F>=E | C,2 E,2 D,2 z z/ E/ | %4
 z z/[K:treble] F/ F>F E2 C>[K:bass]=B, |[M:3/4] [C,C]6 |[M:1/4] [F,A,]2 |[M:4/4] C6- [C,C]2 | %8
 z z/[K:treble] G/ G>G z z/ G/ F>=E | C,2 E,2 D,2 z z/ E/ | %10
 z z/[K:treble] F/ F>F E2 C>[K:bass]=B, |[M:3/4] z6 |[M:1/4] z z/[K:treble] c/ | %13
[M:4/4] z z/ B/ A>A[K:bass] E,2 G,2 | [F,B,D]8 | F,6 G,2 | C6 z2 | z2 D4 z2 | [C,G,C]4 [D,G,=B,]4 | %19
 C2- [D,C-]2 [E,-C]2 E,2 | [F,A,C]4 [D,G,=B,]4 |[M:3/4] [C,E,G,]6 |] %22
V:3
 x8 | G2 z2 D,2 G>G | [G,E]4- [G,-E-A]2 [G,E]2 | [F,A,]6- [F,A,D]2 | %4
 [G,D]4- [G,-DG]>[G,-F] [G,-E]>[G,-D] |[M:3/4] [G,-E]6 |[M:1/4] [G,-C]>[G,-E] | %7
[M:4/4] [G,-G]2 G,2 D,2 G>G | [G,E]4- [G,-E-A]2 [G,E]2 | [F,A,]6- [F,A,D]2 | %10
 [G,D]4- [G,-DG]>[G,-F] [G,-E]>[G,-D] |[M:3/4] [G,-CE]6 |[M:1/4] [G,-c]>G, |[M:4/4] z4 z2 F2 | x8 | %15
 D8 | x8 | D2 z2 F,4 | x8 | z2[K:bass] F,2 z2 C>D | z2[K:treble] z z/ C/- C2 C2 |[M:3/4] x6 |] %22
V:4
 x8 | [E,G,]4 z2 C,2 | B,,4[K:treble] E,4 | z4 z2 C,2 | z4[K:treble] z z/ D/- D3/2[K:bass] z/ | %5
[M:3/4] x6 |[M:1/4] x2 |[M:4/4] E,4 z4 | B,,4[K:treble] E,4 | z4 z2 C,2 | %10
 z4[K:treble] z z/ D/- D3/2[K:bass] z/ |[M:3/4] x6 |[M:1/4] C2[K:treble] |[M:4/4] D,4[K:bass] z4 | %14
 x8 | B,,8 | [E,A,]8 | G,,8 | x8 | [C,E,]2 z2 z4 | x8 |[M:3/4] x6 |] %22
V:5
 x8 | x8 | x3/2[K:treble] x13/2 | x8 | =B,,8[K:treble][K:bass] |[M:3/4] x6 |[M:1/4] x2 | %7
[M:4/4] x8 | x3/2[K:treble] x13/2 | x8 | =B,,8[K:treble][K:bass] |[M:3/4] C,6- | %12
[M:1/4] C,2[K:treble] |[M:4/4] x4[K:bass] x4 | x8 | x8 | x8 | x8 | x8 | x8 | x8 |[M:3/4] x6 |] %22
V:6
 x8 | x8 | x8 | x8 | x8 |[M:3/4] x6 |[M:1/4] x2 |[M:4/4] x8 | x8 | x8 | x8 |[M:3/4] x6 | %12
[M:1/4] x2 |[M:4/4] [B,-F]6 B,2 | x8 | x8 | x8 | x8 | x8 | z4[K:bass] G,4 | x3/2[K:treble] x13/2 | %21
[M:3/4] x6 |] %22

